X:235
T: Paddy Taylor's Slide
S: Treoir
Z: B.Black
M: 12/8
L: 1/8
R: slide
K: Dmix
d | A2 G A2 B c2 A AGE | G2 E G2 A G2 E D3 |
A2 G A2 B c2 A A2 g | fga gfe d3 d2 :|
e | f2 d f2 a g2 e ede | d2 c d2 e d2 c A3 |
f2 d f2 a g2 e a2 g | faf gfe d3 d2 :|
